X:1
T:Title
%%score 1 2 3 4
L:1/8
Q:1/4=80
M:4/4
K:G
V:1 treble nm="Strings 1, Sopran"
V:2 treble nm="Strings 1, Alt"
V:3 bass nm="Strings 1, Tenor"
V:4 bass nm="Strings 1, Bass"
V:1
 z4 z2 D2 | B2 B2 c2 B2 | ABcB A2 D2 | c2 cd e2 dc | B4 A2 D2 | B2 B2 ^c2 c2 | d3 A A2 B2 | %7
 A2 d2 f2 e2 | e4 d2 D2 | c3 B A2 D2 | d3 c B2 G2 | e2 d2 cd e2 | d2 g2 e2 c2 | B2 d2 dcBA | %14
 A4 G4 | z8 |] %16
V:2
 z4 z2 D2 | D2 D2 D2 D2 | D2 D2 D2 D2 | F2 F2 F2 F2 | G2 D2 D2 D2 | D2 D2 E2 E2 | D3 F F2 G2 | %7
 F2 F2 A2 G2 | G4 F2 D2 | F3 F F2 D2 | G3 A G2 G2 | G2 G2 F2 F2 | G4 G2 A2 | G2 G2 F2 F2 | %14
 F2 D2 D4 | z8 |] %16
V:3
 z4 z2 D,2 | G,2 G,2 F,2 G,2 | F,G,A,G, F,2 D,2 | A,2 A,B, C2 B,A, | G,4 F,2 D,2 | %5
 G,2 G,2 A,2 A,2 | A,3[K:treble] D D2 D2 | D2 A,2 ^C2[K:bass] A,2 | A,4 A,2 D,2 | A,3 D C2 D,2 | %10
 B,3 F, G,2 G,2 | C2 B,2 A,B,[K:treble] C2 | B,2 D2 C2 E2 | D2[K:bass] B,2 B,A,DC | C4 B,4 | z8 |] %16
V:4
 z4 z2 D,2 | G,,2 G,,2 A,,2 G,,2 | D,2 D,2 D,2 D,2 | D,2 D,2 D,2 D,2 | G,,4 D,2 D,2 | %5
 G,2 G,2 G,2 G,2 | F,3 D, D,2 G,2 | A,2 A,,2 A,,2 ^C,2 | ^C,2 A,,2 D,2 D,2 | D,3 D, D,2 D,2 | %10
 G,,3 D, G,2 G,2 | C,2 D,2 D,2 C,2 | G,2 B,,2 C,2 C,2 | D,2 D,2 D,2 D,2 | D,2 F,2 G,4 | %15
 z4 .G,,,,,2 z2 |] %16

